packages/swarm-icons/src/icons/large/Check Circled.svg

<svg xmlns="http://www.w3.org/2000/svg" width="28" height="28" viewBox="0 0 28 28">
  <path fill="#212121" d="M12.4435182,16.0293047 L17.7407434,9.84920863 C18.1001655,9.42988278 18.7314655,9.38132125 19.1507914,9.7407434 C19.5701172,10.1001655 19.6186788,10.7314655 19.2592566,11.1507914 L13.2592566,18.1507914 C12.8801641,18.593066 12.20479,18.6190036 11.7928932,18.2071068 L8.79289322,15.2071068 C8.40236893,14.8165825 8.40236893,14.1834175 8.79289322,13.7928932 C9.18341751,13.4023689 9.81658249,13.4023689 10.2071068,13.7928932 L12.4435182,16.0293047 Z M14,23 C18.9705627,23 23,18.9705627 23,14 C23,9.02943725 18.9705627,5 14,5 C9.02943725,5 5,9.02943725 5,14 C5,18.9705627 9.02943725,23 14,23 Z M14,25 C7.92486775,25 3,20.0751322 3,14 C3,7.92486775 7.92486775,3 14,3 C20.0751322,3 25,7.92486775 25,14 C25,20.0751322 20.0751322,25 14,25 Z"/>
</svg>

<svg xmlns="http://www.w3.org/2000/svg" width="28" height="28"><path fill="#212121" d="M12.444 16.03l5.297-6.18a1 1 0 111.518 1.3l-6 7a1 1 0 01-1.466.057l-3-3a1 1 0 011.414-1.414l2.237 2.236zM14 23a9 9 0 100-18 9 9 0 000 18zm0 2C7.925 25 3 20.075 3 14S7.925 3 14 3s11 4.925 11 11-4.925 11-11 11z"/></svg>
